logos/yournotify/yournotify.svg

<svg width="1000" height="250" viewBox="0 0 1000 250" fill="none" xmlns="http://www.w3.org/2000/svg">
<rect width="1000" height="250" fill="white"/>
<path fill-rule="evenodd" clip-rule="evenodd" d="M39.2776 164.595H155.546C139.686 146.859 131.756 122.265 131.756 90.8129C131.756 87.7978 131.04 84.694 129.609 81.5015C128.178 78.309 126.121 75.2643 123.438 72.3674C120.755 69.4705 117.133 67.0909 112.571 65.2286C108.01 63.3663 102.957 62.4351 97.4117 62.4351C91.8666 62.4351 86.8134 63.3663 82.2521 65.2286C77.6908 67.0909 74.0686 69.4705 71.3855 72.3674C68.7024 75.2643 66.6453 78.309 65.2143 81.5015C63.7833 84.694 63.0679 87.7978 63.0679 90.8129C63.0679 122.265 55.1378 146.859 39.2776 164.595ZM171.823 164.595C171.823 167.669 170.691 170.33 168.425 172.576C166.159 174.823 163.476 175.946 160.375 175.946H120.308C120.308 182.213 118.072 187.563 113.6 191.998C109.128 196.432 103.732 198.649 97.4117 198.649C91.0915 198.649 85.6955 196.432 81.2236 191.998C76.7517 187.563 74.5158 182.213 74.5158 175.946H34.448C31.3475 175.946 28.6643 174.823 26.3986 172.576C24.1329 170.33 23 167.669 23 164.595C25.9812 162.112 28.6942 159.511 31.1388 156.791C33.5834 154.072 36.1175 150.539 38.7409 146.194C41.3644 141.849 43.5855 137.163 45.404 132.138C47.2226 127.113 48.7132 121.023 49.8759 113.87C51.0385 106.716 51.6199 99.0307 51.6199 90.8129C51.6199 81.8266 55.1079 73.4759 62.084 65.7607C69.0601 58.0455 78.2125 53.3602 89.5413 51.7048C89.0643 50.5815 88.8258 49.4287 88.8258 48.2462C88.8258 45.8814 89.6605 43.8713 91.33 42.216C92.9995 40.5606 95.0267 39.7329 97.4117 39.7329C99.7967 39.7329 101.824 40.5606 103.493 42.216C105.163 43.8713 105.998 45.8814 105.998 48.2462C105.998 49.4287 105.759 50.5815 105.282 51.7048C116.611 53.3602 125.763 58.0455 132.739 65.7607C139.716 73.4759 143.204 81.8266 143.204 90.8129C143.204 99.0307 143.785 106.716 144.948 113.87C146.11 121.023 147.601 127.113 149.419 132.138C151.238 137.163 153.459 141.849 156.083 146.194C158.706 150.539 161.24 154.072 163.685 156.791C166.129 159.511 168.842 162.112 171.823 164.595ZM83.1018 174.527C84.0558 174.527 84.5328 175 84.5328 175.946C84.5328 179.434 85.7998 182.435 88.3339 184.947C90.8679 187.46 93.8939 188.716 97.4117 188.716C98.3657 188.716 98.8427 189.189 98.8427 190.135C98.8427 191.081 98.3657 191.554 97.4117 191.554C93.0591 191.554 89.3475 190.032 86.2768 186.987C83.2061 183.942 81.6708 180.262 81.6708 175.946C81.6708 175 82.1478 174.527 83.1018 174.527ZM108.479 72.275C112.832 72.275 116.544 73.7974 119.614 76.8421C122.685 79.8868 124.22 83.567 124.22 87.8828C124.22 88.8287 123.743 89.3017 122.789 89.3017C121.835 89.3017 121.358 88.8287 121.358 87.8828C121.358 84.3947 120.091 81.3943 117.557 78.8817C115.023 76.3691 111.997 75.1128 108.479 75.1128C107.525 75.1128 107.048 74.6398 107.048 73.6939C107.048 72.748 107.525 72.275 108.479 72.275Z" fill="#473700"/>
<path d="M287.29 69.1136L252.005 137.716V171.579H227.176V137.716L191.892 69.1136H220.061L239.808 112.026L259.411 69.1136H287.29ZM334.19 172.747C326.252 172.747 319.113 171.044 312.773 167.638C306.432 164.232 301.447 159.367 297.817 153.042C294.187 146.717 292.372 139.321 292.372 130.856C292.372 122.487 294.211 115.116 297.889 108.742C301.568 102.369 306.601 97.4789 312.99 94.0731C319.379 90.6673 326.543 88.9644 334.48 88.9644C342.418 88.9644 349.581 90.6673 355.97 94.0731C362.359 97.4789 367.393 102.369 371.071 108.742C374.75 115.116 376.589 122.487 376.589 130.856C376.589 139.224 374.726 146.595 370.999 152.969C367.272 159.342 362.19 164.232 355.752 167.638C349.315 171.044 342.128 172.747 334.19 172.747ZM334.19 151.144C338.933 151.144 342.975 149.393 346.314 145.89C349.654 142.386 351.324 137.375 351.324 130.856C351.324 124.336 349.702 119.325 346.459 115.821C343.217 112.318 339.224 110.567 334.48 110.567C329.64 110.567 325.623 112.294 322.428 115.748C319.234 119.203 317.637 124.239 317.637 130.856C317.637 137.375 319.21 142.386 322.356 145.89C325.502 149.393 329.447 151.144 334.19 151.144ZM469.809 90.1321V171.579H444.979V160.486C442.462 164.086 439.05 166.981 434.742 169.171C430.435 171.36 425.667 172.455 420.44 172.455C414.245 172.455 408.775 171.068 404.032 168.295C399.289 165.521 395.61 161.508 392.997 156.253C390.383 150.998 389.076 144.819 389.076 137.716V90.1321H413.761V134.359C413.761 139.808 415.164 144.041 417.972 147.057C420.779 150.074 424.554 151.582 429.297 151.582C434.137 151.582 437.961 150.074 440.768 147.057C443.576 144.041 444.979 139.808 444.979 134.359V90.1321H469.809ZM512.498 103.707C515.402 99.2304 519.032 95.703 523.388 93.1243C527.744 90.5456 532.584 89.2563 537.909 89.2563V115.675H531.084C524.889 115.675 520.242 117.013 517.145 119.689C514.047 122.365 512.498 127.06 512.498 133.775V171.579H487.669V90.1321H512.498V103.707ZM599.184 89.2563C608.671 89.2563 616.245 92.3458 621.908 98.5249C627.571 104.704 630.402 113.194 630.402 123.995V171.579H605.718V127.352C605.718 121.903 604.314 117.67 601.507 114.654C598.7 111.637 594.925 110.129 590.181 110.129C585.438 110.129 581.663 111.637 578.856 114.654C576.048 117.67 574.645 121.903 574.645 127.352V171.579H549.815V90.1321H574.645V100.933C577.162 97.3329 580.55 94.4866 584.809 92.3945C589.068 90.3024 593.86 89.2563 599.184 89.2563ZM684.563 172.747C676.625 172.747 669.486 171.044 663.146 167.638C656.805 164.232 651.82 159.367 648.19 153.042C644.56 146.717 642.745 139.321 642.745 130.856C642.745 122.487 644.584 115.116 648.262 108.742C651.941 102.369 656.974 97.4789 663.363 94.0731C669.752 90.6673 676.915 88.9644 684.853 88.9644C692.791 88.9644 699.954 90.6673 706.343 94.0731C712.732 97.4789 717.766 102.369 721.444 108.742C725.123 115.116 726.962 122.487 726.962 130.856C726.962 139.224 725.098 146.595 721.372 152.969C717.645 159.342 712.563 164.232 706.125 167.638C699.688 171.044 692.501 172.747 684.563 172.747ZM684.563 151.144C689.306 151.144 693.348 149.393 696.687 145.89C700.027 142.386 701.697 137.375 701.697 130.856C701.697 124.336 700.075 119.325 696.832 115.821C693.59 112.318 689.597 110.567 684.853 110.567C680.013 110.567 675.996 112.294 672.801 115.748C669.607 119.203 668.01 124.239 668.01 130.856C668.01 137.375 669.583 142.386 672.729 145.89C675.875 149.393 679.82 151.144 684.563 151.144ZM785.333 150.414V171.579H772.701C763.698 171.579 756.68 169.365 751.646 164.938C746.613 160.51 744.096 153.285 744.096 143.262V110.859H734.222V90.1321H744.096V70.2813H768.925V90.1321H785.188V110.859H768.925V143.554C768.925 145.987 769.506 147.738 770.668 148.809C771.829 149.879 773.765 150.414 776.476 150.414H785.333ZM811.615 81.6663C807.259 81.6663 803.701 80.377 800.942 77.7983C798.184 75.2196 796.804 72.0328 796.804 68.2378C796.804 64.3455 798.184 61.11 800.942 58.5313C803.701 55.9526 807.259 54.6633 811.615 54.6633C815.874 54.6633 819.383 55.9526 822.142 58.5313C824.901 61.11 826.28 64.3455 826.28 68.2378C826.28 72.0328 824.901 75.2196 822.142 77.7983C819.383 80.377 815.874 81.6663 811.615 81.6663ZM823.957 90.1321V171.579H799.127V90.1321H823.957ZM882.619 110.859H869.26V171.579H844.43V110.859H835.428V90.1321H844.43V87.7967C844.43 77.7739 847.286 70.1597 852.997 64.9537C858.652 59.7997 866.915 57.197 877.787 57.1447H878.117C879.957 57.1447 881.312 57.1933 882.183 57.2906V78.4551C877.44 78.1632 874.1 78.8444 872.164 80.4986C870.228 82.1528 869.26 85.1207 869.26 89.4023V90.1321H882.619V110.859ZM977 90.1321L926.179 210.259H899.462L918.048 168.806L885.087 90.1321H912.821L931.552 141.073L950.138 90.1321H977Z" fill="#473700"/>
</svg>

<svg width="1000" height="250" fill="none" xmlns="http://www.w3.org/2000/svg"><path fill="#fff" d="M0 0h1000v250H0z"/><path fill-rule="evenodd" clip-rule="evenodd" d="M39.278 164.595h116.268c-15.86-17.736-23.79-42.33-23.79-73.782 0-3.015-.716-6.119-2.147-9.312-1.431-3.192-3.488-6.237-6.171-9.134-2.683-2.897-6.305-5.276-10.867-7.138-4.561-1.863-9.614-2.794-15.16-2.794-5.544 0-10.598.931-15.159 2.794-4.561 1.862-8.183 4.242-10.867 7.138-2.683 2.897-4.74 5.942-6.17 9.134-1.432 3.193-2.147 6.297-2.147 9.312 0 31.452-7.93 56.046-23.79 73.782Zm132.545 0c0 3.074-1.132 5.735-3.398 7.981-2.266 2.247-4.949 3.37-8.05 3.37h-40.067c0 6.267-2.236 11.617-6.708 16.052-4.472 4.434-9.868 6.651-16.188 6.651-6.32 0-11.717-2.217-16.188-6.651-4.472-4.435-6.708-9.785-6.708-16.052H34.448c-3.1 0-5.784-1.123-8.05-3.37-2.265-2.246-3.398-4.907-3.398-7.981a78.213 78.213 0 0 0 8.139-7.804c2.444-2.719 4.979-6.252 7.602-10.597s4.845-9.031 6.663-14.056c1.819-5.025 3.31-11.115 4.472-18.268 1.163-7.154 1.744-14.84 1.744-23.057 0-8.986 3.488-17.337 10.464-25.052 6.976-7.715 16.129-12.4 27.457-14.056a8.768 8.768 0 0 1-.715-3.459c0-2.365.835-4.375 2.504-6.03 1.67-1.655 3.697-2.483 6.082-2.483s4.412.828 6.081 2.483c1.67 1.655 2.505 3.665 2.505 6.03a8.768 8.768 0 0 1-.716 3.459c11.329 1.655 20.481 6.34 27.457 14.056 6.977 7.715 10.465 16.066 10.465 25.052 0 8.218.581 15.903 1.744 23.057 1.162 7.153 2.653 13.243 4.471 18.268 1.819 5.025 4.04 9.711 6.664 14.056 2.623 4.345 5.157 7.878 7.602 10.597a78.164 78.164 0 0 0 8.138 7.804Zm-88.721 9.932c.954 0 1.43.473 1.43 1.419 0 3.488 1.268 6.489 3.802 9.001 2.534 2.513 5.56 3.769 9.078 3.769.954 0 1.43.473 1.43 1.419 0 .946-.476 1.419-1.43 1.419-4.353 0-8.065-1.522-11.135-4.567-3.07-3.045-4.606-6.725-4.606-11.041 0-.946.477-1.419 1.43-1.419Zm25.377-102.252c4.353 0 8.065 1.522 11.135 4.567 3.071 3.045 4.606 6.725 4.606 11.04 0 .947-.477 1.42-1.431 1.42-.954 0-1.431-.473-1.431-1.42 0-3.487-1.267-6.488-3.801-9-2.534-2.513-5.56-3.77-9.078-3.77-.954 0-1.431-.472-1.431-1.418s.477-1.419 1.431-1.419Z" fill="#473700"/><path d="m287.29 69.114-35.285 68.602v33.863h-24.829v-33.863l-35.284-68.602h28.169l19.747 42.912 19.603-42.912h27.879Zm46.9 103.633c-7.938 0-15.077-1.703-21.417-5.109-6.341-3.406-11.326-8.271-14.956-14.596-3.63-6.325-5.445-13.721-5.445-22.186 0-8.369 1.839-15.74 5.517-22.114 3.679-6.373 8.712-11.263 15.101-14.669 6.389-3.406 13.553-5.109 21.49-5.109 7.938 0 15.101 1.703 21.49 5.11 6.389 3.405 11.423 8.295 15.101 14.668 3.679 6.374 5.518 13.745 5.518 22.114 0 8.368-1.863 15.739-5.59 22.113-3.727 6.373-8.809 11.263-15.247 14.669-6.437 3.406-13.624 5.109-21.562 5.109Zm0-21.603c4.743 0 8.785-1.751 12.124-5.254 3.34-3.504 5.01-8.515 5.01-15.034 0-6.52-1.622-11.531-4.865-15.035-3.242-3.503-7.235-5.254-11.979-5.254-4.84 0-8.857 1.727-12.052 5.181-3.194 3.455-4.791 8.491-4.791 15.108 0 6.519 1.573 11.53 4.719 15.034 3.146 3.503 7.091 5.254 11.834 5.254Zm135.619-61.012v81.447h-24.83v-11.093c-2.517 3.6-5.929 6.495-10.237 8.685-4.307 2.189-9.075 3.284-14.302 3.284-6.195 0-11.665-1.387-16.408-4.16-4.743-2.774-8.422-6.787-11.035-12.042-2.614-5.255-3.921-11.434-3.921-18.537V90.132h24.685v44.227c0 5.449 1.403 9.682 4.211 12.698 2.807 3.017 6.582 4.525 11.325 4.525 4.84 0 8.664-1.508 11.471-4.525 2.808-3.016 4.211-7.249 4.211-12.698V90.132h24.83Zm42.689 13.575c2.904-4.477 6.534-8.004 10.89-10.583 4.356-2.578 9.196-3.868 14.521-3.868v26.419h-6.825c-6.195 0-10.842 1.338-13.939 4.014-3.098 2.676-4.647 7.371-4.647 14.086v37.804h-24.829V90.132h24.829v13.575Zm86.686-14.45c9.487 0 17.061 3.089 22.724 9.268s8.494 14.669 8.494 25.47v47.584h-24.684v-44.227c0-5.449-1.404-9.682-4.211-12.698-2.807-3.017-6.582-4.525-11.326-4.525-4.743 0-8.518 1.508-11.325 4.525-2.808 3.016-4.211 7.249-4.211 12.698v44.227h-24.83V90.132h24.83v10.801c2.517-3.6 5.905-6.446 10.164-8.539 4.259-2.092 9.051-3.138 14.375-3.138Zm85.379 83.49c-7.938 0-15.077-1.703-21.417-5.109-6.341-3.406-11.326-8.271-14.956-14.596-3.63-6.325-5.445-13.721-5.445-22.186 0-8.369 1.839-15.74 5.517-22.114 3.679-6.373 8.712-11.263 15.101-14.669 6.389-3.406 13.552-5.109 21.49-5.109 7.938 0 15.101 1.703 21.49 5.11 6.389 3.405 11.423 8.295 15.101 14.668 3.679 6.374 5.518 13.745 5.518 22.114 0 8.368-1.864 15.739-5.59 22.113-3.727 6.373-8.809 11.263-15.247 14.669-6.437 3.406-13.624 5.109-21.562 5.109Zm0-21.603c4.743 0 8.785-1.751 12.124-5.254 3.34-3.504 5.01-8.515 5.01-15.034 0-6.52-1.622-11.531-4.865-15.035-3.242-3.503-7.235-5.254-11.979-5.254-4.84 0-8.857 1.727-12.052 5.181-3.194 3.455-4.791 8.491-4.791 15.108 0 6.519 1.573 11.53 4.719 15.034 3.146 3.503 7.091 5.254 11.834 5.254Zm100.77-.73v21.165h-12.632c-9.003 0-16.021-2.214-21.055-6.641-5.033-4.428-7.55-11.653-7.55-21.676v-32.403h-9.874V90.132h9.874v-19.85h24.829v19.85h16.263v20.727h-16.263v32.695c0 2.433.581 4.184 1.743 5.255 1.161 1.07 3.097 1.605 5.808 1.605h8.857Zm26.282-68.748c-4.356 0-7.914-1.289-10.673-3.868-2.758-2.578-4.138-5.765-4.138-9.56 0-3.892 1.38-7.128 4.138-9.707 2.759-2.578 6.317-3.868 10.673-3.868 4.259 0 7.768 1.29 10.527 3.868 2.759 2.579 4.138 5.815 4.138 9.707 0 3.795-1.379 6.982-4.138 9.56-2.759 2.579-6.268 3.868-10.527 3.868Zm12.342 8.466v81.447h-24.83V90.132h24.83Zm58.662 20.727H869.26v60.72h-24.83v-60.72h-9.002V90.132h9.002v-2.335c0-10.023 2.856-17.637 8.567-22.843 5.655-5.154 13.918-7.757 24.79-7.81h.33c1.84 0 3.195.05 4.066.147v21.164c-4.743-.292-8.083.39-10.019 2.044s-2.904 4.622-2.904 8.903v.73h13.359v20.727ZM977 90.132 926.179 210.26h-26.717l18.586-41.453-32.961-78.674h27.734l18.731 50.941 18.586-50.94H977Z" fill="#473700"/></svg>
